X:1
T:Avoca, 87.87 D
T:Avoca, 87.87 D
T:Hart Pease Danks, 1902
T:Public Domain Courtesy of the Cyber Hymnal™
C:Hart Pease Danks, 1902
Z:Public Domain
Z:Courtesy of the Cyber Hymnal™
%%score ( 1 2 ) ( 3 4 )
L:1/8
Q:1/4=92
M:3/4
K:C
V:1 treble 
V:2 treble 
V:3 bass 
V:4 bass 
V:1
 [CE][DF] | [FA]3 [EG] [Ed]>[Ec] | [Fc]2 [FB]2 [B,D][CE] | [DF]3 [FA] [EG]>[DF] | [CE]4 EE | %5
 [Ec]3 [EB] [EA][EG] | [EG]2 [DF]2 [D^F][DF] | [DG]3 [DB] [DB]>[CA] | [B,G]4 GG | %9
 [Fd]3 [Fc] [FB][FA] | [FA]2 [FG]2 [FG][FG] | [Ec]3 [CE] [CF][CA] | [CG]4 [EG][EG] | %13
 [FA]3 [FA] [GA][GA] | [FA]2 [Af]2 [Ae][Ad] | [Gd]3 [Gc] [Fc][FB] | [Ec]4 |] %17
V:2
 x2 | x6 | x6 | x6 | x4 EE | x6 | x6 | x6 | x4 GG | x6 | x6 | x6 | x6 | x6 | x6 | x6 | x4 |] %17
V:3
 [C,G,][C,G,] | [C,C]3 [C,C] [C,G,]>[C,G,] | [D,G,]2 [D,G,]2 [G,,G,][G,,G,] | %3
 [G,,G,]3 [G,,G,] [A,,G,]>[B,,G,] | [C,G,]4 E,E, | [A,,A,]3 [B,,^G,] [C,A,][^C,A,] | %6
 [D,A,]2 [D,A,]2 [C,A,][C,A,] | [B,,G,]3 [G,,G,] [D,^F,]>[D,F,] | [G,,G,]4 G,G, | %9
 [G,B,]3 [G,C] [G,D][G,C] | [G,B,]2 [G,B,]2 [G,B,][G,B,] | [C,C]3 [_B,,G,] [A,,F,][F,,F,] | %12
 [C,E,]4 [C,G,][C,C] | [F,C]3 [F,C] [E,^C][E,C] | [D,D]2 [D,D]2 [E,^C][F,D] | %15
 [G,E]3 [G,E] [G,D][G,D] | [C,C]4 |] %17
V:4
 x2 | x6 | x6 | x6 | x4 E,E, | x6 | x6 | x6 | x4 G,G, | x6 | x6 | x6 | x6 | x6 | x6 | x6 | x4 |] %17

